brandFactory_export/1.Light/Mano arriba_1light.svg

<?xml version="1.0" encoding="UTF-8"?>
<svg width="24px" height="24px" viewBox="0 0 24 24" version="1.1" xmlns="http://www.w3.org/2000/svg" xmlns:xlink="http://www.w3.org/1999/xlink">
    <title>1.Light/Mano arriba_1light</title>
    <g id="Symbols" stroke="none" stroke-width="1" fill="none" fill-rule="evenodd">
        <g id="1.Light/Mano-arriba_1light" fill="#5CB615" fill-rule="nonzero">
            <path d="M20.7294118,19.8218487 C20.7294118,20.7193277 20.497479,21.4184874 20.0336134,21.8957983 C19.5697479,22.3731092 18.8134454,22.6386555 17.8991597,22.6386555 L8.55462185,22.6386555 C8.32605042,22.6386555 8.14453782,22.4403361 7.91260504,21.9361345 C7.73445378,21.5529412 7.11260504,20.2823529 6.45042017,18.9411765 C5.34789916,16.702521 3.97647059,13.9159664 3.16302521,12.1781513 C2.88067227,11.5764706 2.96134454,10.9915966 3.37815126,10.6588235 C3.58991597,10.487395 3.85210084,10.3966387 4.12773109,10.3966387 C4.42689076,10.3966387 4.72605042,10.5042017 4.97142857,10.702521 C5.28403361,10.9512605 5.57647059,11.3277311 5.94621849,11.9596639 C6.16806723,12.3394958 6.61848739,12.5243697 7.04537815,12.4067227 C7.46890756,12.2890756 7.76470588,11.8991597 7.76470588,11.4554622 L7.76470588,2.60504202 C7.85882353,1.15294118 8.7092437,0.988235294 9.34453782,0.988235294 C10.3798319,0.988235294 10.9277311,1.54285714 10.9277311,2.59495798 L10.9277311,6.07731092 C10.9277311,6.61848739 11.3613445,7.05882353 11.902521,7.06218487 C11.989916,7.06218487 12.0806723,7.0487395 12.1647059,7.02521008 C12.3294118,6.97815126 12.5176471,6.95462185 12.7226891,6.95462185 C13.4756303,6.95462185 13.9462185,7.2605042 14.1176471,7.86554622 C14.2352941,8.28571429 14.6184874,8.57815126 15.0554622,8.58151261 C15.1596639,8.58151261 15.2638655,8.56470588 15.3647059,8.53109244 C15.5462185,8.47058824 15.7579832,8.44033613 15.989916,8.44033613 C16.7462185,8.44033613 17.2168067,8.74957983 17.3882353,9.36134454 C17.4588235,9.62016807 17.6336134,9.83865546 17.8689076,9.96638655 C18.1042017,10.0941176 18.3798319,10.1176471 18.6352941,10.0336134 C18.8168067,9.97310924 19.0285714,9.94285714 19.2571429,9.94285714 C20.2319328,9.94285714 20.7260504,10.4436975 20.7260504,11.4319328 L20.7294118,19.8218487 Z M19.2605042,8.9512605 C18.9210084,8.9512605 18.6084034,8.99831933 18.3327731,9.09243697 C18.0470588,8.06386555 17.2033613,7.45210084 15.9966387,7.45210084 C15.6571429,7.45210084 15.3445378,7.50252101 15.0655462,7.59327731 C14.7764706,6.57478992 13.9361345,5.9697479 12.7327731,5.9697479 C12.4369748,5.9697479 12.1613445,6.00672269 11.912605,6.07731092 L11.912605,2.59159664 C11.912605,0.991596639 10.9310924,0 9.3512605,0 C7.83193277,0 6.90084034,0.924369748 6.79663866,2.54117647 L6.79663866,2.59159664 L6.79327731,11.4554622 C6.38655462,10.7630252 6.02016807,10.2789916 5.58319328,9.92941176 C5.17310924,9.59663866 4.66218487,9.41512605 4.13445378,9.41176471 C3.65042017,9.41176471 3.1697479,9.5697479 2.77647059,9.88907563 C1.99663866,10.5142857 1.80504202,11.5798319 2.28571429,12.605042 C3.10252101,14.3428571 4.47731092,17.1361345 5.57983193,19.3815126 C6.26890756,20.7798319 6.86386555,21.9865546 7.03193277,22.3529412 C7.20672269,22.7327731 7.62016807,23.6268908 8.55798319,23.6268908 L17.902521,23.6268908 C19.0823529,23.6268908 20.087395,23.2571429 20.7361345,22.5882353 C21.3815126,21.9226891 21.707563,20.9915966 21.707563,19.8285714 L21.707563,11.4285714 C21.7042017,9.89915966 20.7697479,8.9512605 19.2605042,8.9512605 Z" id="Mano-arriba_1light"></path>
        </g>
    </g>
</svg>

<svg width="24" height="24" viewBox="0 0 24 24" xmlns="http://www.w3.org/2000/svg"><path d="M20.73 19.822c0 .897-.233 1.596-.696 2.074-.464.477-1.22.743-2.135.743H8.555c-.229 0-.41-.199-.642-.703-.179-.383-.8-1.654-1.463-2.995-1.102-2.238-2.474-5.025-3.287-6.763-.282-.602-.202-1.186.215-1.52.212-.17.474-.261.75-.261.299 0 .598.107.843.306.313.248.605.625.975 1.257a.973.973 0 001.1.447.987.987 0 00.719-.952v-8.85c.094-1.452.944-1.617 1.58-1.617 1.035 0 1.583.555 1.583 1.607v3.482c0 .541.433.982.975.985a.988.988 0 00.262-.037c.164-.047.353-.07.558-.07.753 0 1.223.306 1.395.91.117.42.5.713.937.717a.977.977 0 00.31-.05c.181-.061.393-.092.625-.092.756 0 1.227.31 1.398.921.07.26.246.478.48.605.236.128.512.152.767.068.182-.06.394-.091.622-.091.975 0 1.47.5 1.47 1.489l.002 8.39zm-1.47-10.87c-.339 0-.652.046-.927.14-.286-1.028-1.13-1.64-2.336-1.64-.34 0-.652.05-.931.141-.29-1.018-1.13-1.623-2.333-1.623-.296 0-.572.037-.82.107V2.592C11.913.992 10.93 0 9.35 0c-1.52 0-2.45.924-2.554 2.541v.05l-.004 8.864c-.406-.692-.773-1.176-1.21-1.526a2.321 2.321 0 00-1.449-.517c-.484 0-.964.158-1.358.477-.78.625-.971 1.69-.49 2.716.817 1.738 2.191 4.531 3.294 6.777.689 1.398 1.284 2.605 1.452 2.97.175.38.588 1.275 1.526 1.275h9.345c1.18 0 2.184-.37 2.833-1.039.646-.665.972-1.596.972-2.76v-8.4c-.004-1.529-.938-2.477-2.447-2.477z" fill="#5CB615" fill-rule="nonzero"/></svg>
